common/svg/instagram-icon.svg

<svg fill="none" height="20" viewBox="0 0 20 20" width="20" xmlns="http://www.w3.org/2000/svg"><path d="m10.0009 0c-2.71582 0-3.05666.0118753-4.12334.0604175-1.06459.0487505-1.79127.2172935-2.42711.4645885-.65771.255419-1.21564.597094-1.77147 1.153134-.55626.55584-.89793 1.11376-1.154183 1.77127-.247919.63605-.416671 1.36293-.4645881 2.42711-.0477089 1.06668-.0602089 1.40772-.0602089 4.12358 0 2.7159.0120837 3.0557.0604175 4.1223.0489585 1.0646.2175025 1.7913.4645885 2.4271.255627.6578.597294 1.2157 1.153344 1.7715.55563.5563 1.11355.8988 1.77085 1.1542.63626.2473 1.36314.4158 2.42753.4646 1.06668.0485 1.4073.0604 4.12296.0604 2.71611 0 3.05591-.0119 4.12251-.0604 1.0646-.0488 1.7921-.2173 2.4284-.4646.6575-.2554 1.2146-.5979 1.7702-1.1542.5563-.5558.8979-1.1137 1.1542-1.7712.2458-.6361.4146-1.363.4646-2.4272.0479-1.0666.0604-1.4066.0604-4.1225 0-2.71586-.0125-3.05669-.0604-4.12337-.05-1.0646-.2188-1.79127-.4646-2.42711-.2563-.65772-.5979-1.21564-1.1542-1.77148-.5562-.55625-1.1125-.897923-1.7708-1.153134-.6375-.247295-1.3646-.415838-2.4292-.4645885-1.0667-.0485422-1.4063-.0604175-4.12299-.0604175zm-.89705 1.8021c.26625-.00041.56333 0 .89705 0 2.6701 0 2.9865.00959 4.0409.0575.975.04459 1.5042.20751 1.8567.34438.4667.18125.7994.39792 1.1492.74793.35.35.5666.68334.7483 1.15001.1369.35208.3.88126.3444 1.85627.0479 1.05417.0583 1.37084.0583 4.03962 0 2.66879-.0104 2.98549-.0583 4.03959-.0446.975-.2075 1.5042-.3444 1.8563-.1812.4667-.3983.799-.7483 1.1488-.35.35-.6823.5666-1.1492.7479-.3521.1375-.8817.3-1.8567.3446-1.0542.0479-1.3708.0583-4.0409.0583-2.6702 0-2.98666-.0104-4.04084-.0583-.97501-.045-1.50418-.2079-1.85689-.3448-.46667-.1813-.80001-.3979-1.15001-.7479-.35001-.35-.56668-.6825-.74835-1.1494-.13687-.3521-.3-.8813-.34437-1.8563-.04792-1.0542-.0575-1.3708-.0575-4.04129 0-2.67044.00958-2.98544.0575-4.03962.04458-.97501.2075-1.50419.34437-1.85669.18126-.46667.39834-.80001.74835-1.15001.35-.35.68334-.56667 1.15001-.74834.3525-.1375.88188-.3 1.85689-.3448.92251-.04166 1.28002-.05416 3.14379-.05625zm6.23505 1.66044c-.6625 0-1.2.53688-1.2 1.19959 0 .66251.5375 1.20001 1.2 1.20001s1.2-.5375 1.2-1.20001-.5375-1.20001-1.2-1.20001zm-5.338 1.40209c-2.83603 0-5.13543 2.2994-5.13543 5.13547 0 2.8361 2.2994 5.1344 5.13543 5.1344 2.8361 0 5.1347-2.2983 5.1347-5.1344 0-2.83607-2.2988-5.13547-5.1349-5.13547zm0 1.80211c1.8409 0 3.3334 1.4923 3.3334 3.33336 0 1.8409-1.4925 3.3334-3.3334 3.3334-1.84102 0-3.33333-1.4925-3.33333-3.3334 0-1.84106 1.49231-3.33336 3.33333-3.33336z" fill="#000"/></svg>

<svg width="20" height="20" viewBox="0 0 20 20" fill="none" xmlns="http://www.w3.org/2000/svg">
<path d="M10.0009 0C7.28508 0 6.94424 0.0118753 5.87756 0.0604175C4.81297 0.109168 4.08629 0.277711 3.45045 0.525006C2.79274 0.780425 2.23481 1.1221 1.67898 1.67814C1.12272 2.23398 0.78105 2.7919 0.524797 3.44941C0.276878 4.08546 0.108126 4.81234 0.0602089 5.87652C0.0125 6.9432 0 7.28424 0 10.0001C0 12.716 0.0120837 13.0558 0.0604175 14.1224C0.109376 15.187 0.27792 15.9137 0.525006 16.5495C0.780633 17.2073 1.1223 17.7652 1.67835 18.321C2.23398 18.8773 2.7919 19.2198 3.4492 19.4752C4.08546 19.7225 4.81234 19.891 5.87673 19.9398C6.94341 19.9883 7.28403 20.0002 9.99969 20.0002C12.7158 20.0002 13.0556 19.9883 14.1222 19.9398C15.1868 19.891 15.9143 19.7225 16.5506 19.4752C17.2081 19.2198 17.7652 18.8773 18.3208 18.321C18.8771 17.7652 19.2187 17.2073 19.475 16.5498C19.7208 15.9137 19.8896 15.1868 19.9396 14.1226C19.9875 13.056 20 12.716 20 10.0001C20 7.28424 19.9875 6.94341 19.9396 5.87673C19.8896 4.81213 19.7208 4.08546 19.475 3.44962C19.2187 2.7919 18.8771 2.23398 18.3208 1.67814C17.7646 1.12189 17.2083 0.780217 16.55 0.525006C15.9125 0.277711 15.1854 0.109168 14.1208 0.0604175C13.0541 0.0118753 12.7145 0 9.99781 0H10.0009ZM9.10385 1.8021C9.3701 1.80169 9.66718 1.8021 10.0009 1.8021C12.671 1.8021 12.9874 1.81169 14.0418 1.8596C15.0168 1.90419 15.546 2.06711 15.8985 2.20398C16.3652 2.38523 16.6979 2.6019 17.0477 2.95191C17.3977 3.30191 17.6143 3.63525 17.796 4.10192C17.9329 4.454 18.096 4.98318 18.1404 5.95819C18.1883 7.01236 18.1987 7.32903 18.1987 9.99781C18.1987 12.6666 18.1883 12.9833 18.1404 14.0374C18.0958 15.0124 17.9329 15.5416 17.796 15.8937C17.6148 16.3604 17.3977 16.6927 17.0477 17.0425C16.6977 17.3925 16.3654 17.6091 15.8985 17.7904C15.5464 17.9279 15.0168 18.0904 14.0418 18.135C12.9876 18.1829 12.671 18.1933 10.0009 18.1933C7.3307 18.1933 7.01424 18.1829 5.96006 18.135C4.98505 18.09 4.45588 17.9271 4.10317 17.7902C3.6365 17.6089 3.30316 17.3923 2.95316 17.0423C2.60315 16.6923 2.38648 16.3598 2.20481 15.8929C2.06794 15.5408 1.90481 15.0116 1.86044 14.0366C1.81252 12.9824 1.80294 12.6658 1.80294 9.99531C1.80294 7.32487 1.81252 7.00987 1.86044 5.95569C1.90502 4.98068 2.06794 4.4515 2.20481 4.099C2.38607 3.63233 2.60315 3.29899 2.95316 2.94899C3.30316 2.59899 3.6365 2.38232 4.10317 2.20065C4.45567 2.06315 4.98505 1.90065 5.96006 1.85585C6.88257 1.81419 7.24008 1.80169 9.10385 1.7996V1.8021ZM15.3389 3.46254C14.6764 3.46254 14.1389 3.99942 14.1389 4.66213C14.1389 5.32464 14.6764 5.86214 15.3389 5.86214C16.0014 5.86214 16.5389 5.32464 16.5389 4.66213C16.5389 3.99962 16.0014 3.46212 15.3389 3.46212V3.46254ZM10.0009 4.86463C7.16487 4.86463 4.86547 7.16403 4.86547 10.0001C4.86547 12.8362 7.16487 15.1345 10.0009 15.1345C12.837 15.1345 15.1356 12.8362 15.1356 10.0001C15.1356 7.16403 12.8368 4.86463 10.0007 4.86463H10.0009ZM10.0009 6.66674C11.8418 6.66674 13.3343 8.15904 13.3343 10.0001C13.3343 11.841 11.8418 13.3335 10.0009 13.3335C8.15988 13.3335 6.66757 11.841 6.66757 10.0001C6.66757 8.15904 8.15988 6.66674 10.0009 6.66674Z" fill="black"/>
</svg>
